MonoIcons/scalable/status/starred-symbolic.svg

<?xml version="1.0" encoding="UTF-8"?>
<svg height="16px" viewBox="0 0 16 16" width="16px" xmlns="http://www.w3.org/2000/svg">
    <path d="m 8 0 c -0.429688 0 -0.8125 0.273438 -0.949219 0.683594 l -1.449219 4.339844 l -4.589843 -0.015626 c -0.980469 -0.003906 -1.382813 1.257813 -0.582031 1.820313 l 3.625 2.554687 l -1.5 4.285157 c -0.316407 0.902343 0.6875 1.691406 1.492187 1.171875 l 4.003906 -2.59375 l 3.894531 2.585937 c 0.800782 0.53125 1.816407 -0.257812 1.5 -1.160156 l -1.503906 -4.289063 l 3.644532 -2.578124 c 0.789062 -0.5625 0.394531 -1.808594 -0.574219 -1.8125 l -4.660157 -0.015626 l -1.402343 -4.285156 c -0.132813 -0.410156 -0.515625 -0.68749975 -0.949219 -0.691406 z m 0 0" fill="#2e3436"/>
</svg>

<svg width="16" height="16" viewBox="0 0 16 16" fill="none" xmlns="http://www.w3.org/2000/svg">
<g clip-path="url(#clip0_231_1017)">
<path d="M7.9999 0C7.57021 0 7.1874 0.273438 7.05068 0.683594L5.60146 5.02344L1.01162 5.00781C0.0311503 5.00391 -0.371194 6.26562 0.429588 6.82812L4.05459 9.38281L2.55459 13.668C2.23818 14.5703 3.24209 15.3594 4.04678 14.8398L8.05068 12.2461L11.9452 14.832C12.746 15.3633 13.7616 14.5742 13.4452 13.6719L11.9413 9.38281L15.5858 6.80469C16.3749 6.24219 15.9804 4.99609 15.0116 4.99219L10.3515 4.97656L8.94912 0.691406C8.81631 0.28125 8.43349 0.00390625 7.9999 0V0Z" fill="#2E3436"/>
</g>
<defs>
<clipPath id="clip0_231_1017">
<rect width="16" height="16" fill="white"/>
</clipPath>
</defs>
</svg>
